X: 3442
M: 2/4
L: 1/16
K: G
|:!p!\
ffff fecA | eeee edBG |\
f3e dcBA |GgdB G2z2 H:|
|:\
EFEF GFGA | B2c2B2z2 |\
^dddd eeee | ffff g2z2 |\
gggf e2A2 | aaag f2(ed) |\
^cdef gABc | d2(fe) d=cBc |
ddg2 BBd2 | cccc e2d2 |\
cce2 FFA2 | GABc e2d2 |\
ddg2 BBd2 | cccc e2d2 |\
f3e dcBA | GgdB G2z2 :|
[K:=f][K:C]\
|:\
!p!GGGG !f!edcA | !p!GGGG !f!edcA |\
!p!GAGA BABc | "_cres."dd^cc ddgz |\
!p!GGGG !f!edcA | !p!GGGG !f!edcA |\


